src/lib/packages/icons/src/assets/filled/app-store.svg

<svg xmlns="http://www.w3.org/2000/svg" width="24" height="24" fill="none"><path fill="currentColor" d="M18 3H6C4 3 3 4 3 6v12c0 2 1 3 3 3h12c2 0 3-1 3-3V6c0-2-1-3-3-3ZM8.36 16.95c-.21.36-.67.49-1.03.28a.764.764 0 0 1-.28-1.03l.54-.93c.61-.19 1.1-.04 1.49.43l-.72 1.26v-.01Zm5.21-2.04H6.75c-.42 0-.75-.34-.75-.76s.33-.76.75-.76h1.91l2.45-4.27-.76-1.34a.755.755 0 0 1 .28-1.03c.36-.21.82-.09 1.03.28l.33.58.33-.58c.21-.36.67-.49 1.03-.28.36.21.48.67.28 1.03l-3.22 5.6h2.33c.75 0 1.18.89.85 1.51l-.02.02Zm3.68 0h-1.08l.73 1.28c.21.36.08.82-.28 1.03-.36.21-.82.09-1.03-.28-1.23-2.15-2.16-3.76-2.77-4.83-.63-1.09-.18-2.19.26-2.56.49.85 1.23 2.13 2.21 3.85h1.95c.42 0 .75.34.75.76s-.33.76-.75.76l.01-.01Z"/></svg>

<svg width="24" height="24" viewBox="0 0 24 24" fill="none" xmlns="http://www.w3.org/2000/svg">
<path d="M18 3H6C4 3 3 4 3 6V18C3 20 4 21 6 21H18C20 21 21 20 21 18V6C21 4 20 3 18 3ZM8.35999 16.95C8.14999 17.31 7.69002 17.44 7.33002 17.23C6.97002 17.02 6.84999 16.56 7.04999 16.2L7.59003 15.27C8.20003 15.08 8.69002 15.23 9.08002 15.7L8.35999 16.96V16.95ZM13.57 14.91H6.75C6.33 14.91 6 14.57 6 14.15C6 13.73 6.33 13.39 6.75 13.39H8.65997L11.11 9.12L10.35 7.78C10.14 7.42 10.27 6.96 10.63 6.75C10.99 6.54 11.45 6.66 11.66 7.03L11.99 7.60999L12.32 7.03C12.53 6.67 12.99 6.54 13.35 6.75C13.71 6.96 13.83 7.42 13.63 7.78L10.41 13.38H12.74C13.49 13.38 13.92 14.27 13.59 14.89L13.57 14.91ZM17.25 14.91H16.17L16.9 16.19C17.11 16.55 16.98 17.01 16.62 17.22C16.26 17.43 15.8 17.31 15.59 16.94C14.36 14.79 13.43 13.18 12.82 12.11C12.19 11.02 12.64 9.91999 13.08 9.54999C13.57 10.4 14.31 11.68 15.29 13.4H17.24C17.66 13.4 17.99 13.74 17.99 14.16C17.99 14.58 17.66 14.92 17.24 14.92L17.25 14.91Z" fill="currentColor"/>
</svg>
